!!!COM: Music21
!!!OTL: barndance_Josie-Begleys-Fancy
!!!OMV: barndance_Josie-Begleys-Fancy
**kern
*clefG2
*k[f#c#]
*M4/4
=1
8f#L
8aJ
=
8bL
8aJ
12bL
12cc#
12ddJ
8eeL
8cc#J
8ddL
8bJ
=
8aL
8f#J
8eL
8f#J
8dL
8eJ
8f#L
8gJ
=
8aL
8bJ
8cc#L
8aJ
8ddL
8aJ
8bL
8f#J
=
4e
8eL
8dJ
4e
4ryy
=||
*M4/4
8f#L
8aJ
!!linebreak:original
=
8bL
8aJ
12bL
12cc#
12ddJ
8eeL
8cc#J
8ddL
8bJ
=
8aL
8f#J
8eL
8f#J
8dL
8eJ
8f#L
8gJ
=
8aL
8bJ
8cc#L
8aJ
8ddL
8aJ
8bL
8f#J
=
4e
8eL
8dJ
4e
4ryy
=||
8f#L
8aJ
2.ryy
=
8bL
8aJ
12bL
12cc#
12ddJ
4gg
12ff#L
12gg
12ff#J
!!linebreak:original
=
8eeL
8ddJ
8bL
8cc#J
4dd
8ddL
8ff#J
=
8eeL
8ff#J
8eeL
8ddJ
8bL
8aJ
12bL
12cc#
12ddJ
=
8eeL
8ddJ
8ff#L
8ddJ
8eeL
8ddJ
8bL
8ddJ
=
4gg
12ff#L
12gg
12ff#J
8eeL
8ff#J
8ddL
8bJ
=
8aL
8f#J
8eL
8f#J
8dL
8eJ
8f#L
8gJ
!!linebreak:original
=
8aL
8bJ
8cc#L
8aJ
8ddL
8aJ
8bL
8f#J
=
4e
8eL
8dJ
4e
4ryy
=||
8f#L
8aJ
2.ryy
=
8bL
8aJ
12bL
12cc#
12ddJ
4gg
12ff#L
12gg
12ff#J
=
8eeL
8ddJ
8bL
8cc#J
4dd
8ddL
8ff#J
=
8eeL
8ff#J
8eeL
8ddJ
8bL
8aJ
12bL
12cc#
12ddJ
!!linebreak:original
=
8eeL
8ddJ
8ff#L
8ddJ
8eeL
8ddJ
8bL
8ddJ
=
4gg
12ff#L
12gg
12ff#J
8eeL
8ff#J
8ddL
8bJ
=
8aL
8f#J
8eL
8f#J
8dL
8eJ
8f#L
8gJ
=
8aL
8bJ
8cc#L
8aJ
8ddL
8aJ
8bL
8f#J
=
4e
8eL
8dJ
4e
4ryy
=||
*-
